assets/icons/qvision/edit_attributes.svg

<svg xmlns="http://www.w3.org/2000/svg" height="24" viewBox="0 0 24 24" width="24"><path class="st0" d="M0 0h24v24H0z" fill="none"/><path d="M17.63 7H6.37C3.96 7 2 9.24 2 12s1.96 5 4.37 5h11.26c2.41 0 4.37-2.24 4.37-5s-1.96-5-4.37-5zM7.24 14.46l-2.57-2.57.7-.7 1.87 1.87 3.52-3.52.7.7-4.22 4.22z"/></svg>

<svg width="24" height="24" viewBox="0 0 24 24" fill="none" xmlns="http://www.w3.org/2000/svg">
<g clip-path="url(#clip0_147_5225)">
<path d="M17.63 7H6.37C3.96 7 2 9.24 2 12C2 14.76 3.96 17 6.37 17H17.63C20.04 17 22 14.76 22 12C22 9.24 20.04 7 17.63 7ZM7.24 14.46L4.67 11.89L5.37 11.19L7.24 13.06L10.76 9.54L11.46 10.24L7.24 14.46Z" fill="#323232"/>
</g>
<defs>
<clipPath id="clip0_147_5225">
<rect width="24" height="24" fill="white"/>
</clipPath>
</defs>
</svg>
